X: 17888
T: Horseshoes And Rainbows
R: reel
M: 4/4
K: Eminor
ef|:geee BGGG|cAAA EAAG|FDFA defd|eBBB ABef|geee BGGG|
cAAA EAAG|1 FDFA d3e|f3e defa:|2 FDFA defe|d2dc BAGF||
E2BB FEEE|B,EEE FEED|E2 BE FEED|B,EFB FEED|
CEGB A2FD|B,DFA G2GF|EGBd cBAG|1 FBBA B2BA:|2 FBBA B2ef||

